X: 1
T: Hare in the Corn, The
I: Hare in the Corn, The	J-51	G	jig
M: 6/8
R: jig
K: G
Bc| "G"d2B G2B| ded "C"cBA| "G"BAG "C"EDB,| EDB, "D"A,B,A,|
    "G"G,B,D G,B,D| "C"EFG "D"Adc| "G"B2G dBG| "D"cAF "G"G:|
|:Bc| "G"ded BGB| def g2e| "C"edB "G"gdB| gdB ABA|
    "G"GBd GBd| "C"bag "D"(4efge| "C"edB "G"gdB| "D"cAF "G"G:|
%%text Roaring Jelly  J-51

